Catalina-light/actions/22/roll.svg

<svg viewBox="0 0 22 22" xmlns="http://www.w3.org/2000/svg">
<defs>
<style id="current-color-scheme" type="text/css">.ColorScheme-Text {
        color:#363636
      }</style>
</defs>
<path class="ColorScheme-Text" d="m3.666 3c-0.36933 0-0.66602 0.29668-0.66602 0.66602v14.668c0 0.36933 0.29668 0.66602 0.66602 0.66602h14.668c0.36933 0 0.66602-0.29668 0.66602-0.66602v-14.668c0-0.36933-0.29668-0.66602-0.66602-0.66602h-14.668zm2.834 2c0.831 0 1.5 0.669 1.5 1.5s-0.669 1.5-1.5 1.5-1.5-0.669-1.5-1.5 0.669-1.5 1.5-1.5zm9 0c0.831 0 1.5 0.669 1.5 1.5s-0.669 1.5-1.5 1.5-1.5-0.669-1.5-1.5 0.669-1.5 1.5-1.5zm-4.5 4.5c0.831 0 1.5 0.669 1.5 1.5s-0.669 1.5-1.5 1.5-1.5-0.669-1.5-1.5 0.669-1.5 1.5-1.5zm-4.5 4.5c0.831 0 1.5 0.669 1.5 1.5s-0.669 1.5-1.5 1.5-1.5-0.669-1.5-1.5 0.669-1.5 1.5-1.5zm9 0c0.831 0 1.5 0.669 1.5 1.5s-0.669 1.5-1.5 1.5-1.5-0.669-1.5-1.5 0.669-1.5 1.5-1.5z" fill="#363636"/>
</svg>

<svg xmlns="http://www.w3.org/2000/svg" viewBox="0 0 22 22">
  <defs id="defs3051">
    <style type="text/css" id="current-color-scheme">
      .ColorScheme-Text {
        color:#4d4d4d
      }
      </style>
  </defs>
 <path 
     style="fill:currentColor;fill-opacity:1;stroke:none"      
	 class="ColorScheme-Text"
        d="M 3.6660156 3 C 3.2966823 3 3 3.2966823 3 3.6660156 L 3 18.333984 C 3 18.703318 3.2966823 19 3.6660156 19 L 18.333984 19 C 18.703318 19 19 18.703318 19 18.333984 L 19 3.6660156 C 19 3.2966823 18.703318 3 18.333984 3 L 3.6660156 3 z M 6.5 5 C 7.331 5 8 5.669 8 6.5 C 8 7.331 7.331 8 6.5 8 C 5.669 8 5 7.331 5 6.5 C 5 5.669 5.669 5 6.5 5 z M 15.5 5 C 16.331 5 17 5.669 17 6.5 C 17 7.331 16.331 8 15.5 8 C 14.669 8 14 7.331 14 6.5 C 14 5.669 14.669 5 15.5 5 z M 11 9.5 C 11.831 9.5 12.5 10.169 12.5 11 C 12.5 11.831 11.831 12.5 11 12.5 C 10.169 12.5 9.5 11.831 9.5 11 C 9.5 10.169 10.169 9.5 11 9.5 z M 6.5 14 C 7.331 14 8 14.669 8 15.5 C 8 16.331 7.331 17 6.5 17 C 5.669 17 5 16.331 5 15.5 C 5 14.669 5.669 14 6.5 14 z M 15.5 14 C 16.331 14 17 14.669 17 15.5 C 17 16.331 16.331 17 15.5 17 C 14.669 17 14 16.331 14 15.5 C 14 14.669 14.669 14 15.5 14 z "
     />
</svg>
